X:27
T:Polska efter Bengt Bixo
T:(SvL Jämtland 27)
S:Bengt Bixo
B:Svenska Låtar Jämtland
R:Polska
O:Mörsil, Jämtland
M:3/4
L:1/8
K:A
[Ac]2 Bd/B/ A>c|c>e (3f(ed) c>d|(3e(fg) (3.a(gf) (3.e(fg)|(3f(ed) e>c AA|
(3.c(dc) (3.B(dB) A>c|c>e (3f(ed) c>d|(3e(fg) (3a(gf) (3e(fg)|(3f(^df) e2 z2:|
|:{efg}az ef ed|cB AG AB|cd fe dc|Bd c4|
{efg}az ef ed|cB AG AB|cf dc BA|GB A4:|

